StripePaymentsUI/StripePaymentsUI/Resources/StripePaymentsUI.xcassets/Cards/stp_card_unionpay.imageset/icon-card-unionpay.svg

<svg fill="none" height="17" viewBox="0 0 26 17" width="26" xmlns="http://www.w3.org/2000/svg"><path d="m4.70008 1.00006h5.99032c.8362 0 1.3563.7264 1.1612 1.62054l-2.78893 12.7614c-.19682.891-1.03403 1.6181-1.87081 1.6181h-5.98971c-.835028 0-1.356279-.7271-1.161211-1.6181l2.790081-12.7614c.19507-.89414 1.03184-1.62054 1.86906-1.62054z" fill="#dd2423"/><path d="m10.1919 1.00006h6.8887c.8361 0 .4591.7264.2624 1.62054l-2.7885 12.7614c-.1956.891-.1346 1.6181-.9724 1.6181h-6.88868c-.8378 0-1.35627-.7271-1.15946-1.6181l2.78833-12.7614c.19799-.89414 1.03301-1.62054 1.86961-1.62054z" fill="#16315e"/><path d="m16.8074 1.00006h5.9903c.8374 0 1.3575.7264 1.1608 1.62054l-2.7885 12.7614c-.1968.891-1.0346 1.6181-1.8718 1.6181h-5.9875c-.8378 0-1.3575-.7271-1.1612-1.6181l2.7889-12.7614c.1951-.89414 1.0312-1.62054 1.869-1.62054z" fill="#036862"/><path d="m6.26451 5.08973c-.61601.00669-.79793 0-.85605-.01463-.02233.11313-.43802 2.15678-.43919 2.1585-.0895.41346-.15462.70818-.37583.8985-.12556.11064-.27216.16401-.44211.16401-.27318 0-.43233-.14456-.45905-.41875l-.00511-.09414s.08322-.55383.08322-.55694c0 0 .43628-1.86236.51439-2.10854.00409-.014.00526-.02132.00628-.02801-.84919.00794-.99972 0-1.01009-.01463-.00569.02008-.02672.13554-.02672.13554l-.44547 2.09905-.03825.17802-.07403.5823c0 .17273.03183.31371.0952.43291.20295.37798.78187.43462 1.10937.43462.42197 0 .8178-.09554 1.08528-.26998.46431-.2924.58579-.74943.69413-1.15558l.05023-.20836s.44941-1.93425.52577-2.18588c.00292-.014.00409-.02132.00803-.02801zm1.52911 1.56038c-.10834 0-.30633.02801-.48417.12091-.06453.03533-.12556.0761-.18995.11671l.05811-.22361-.03183-.03766c-.37714.08139-.46154.09228-.80991.14456l-.0292.0207c-.04045.35744-.07637.62618-.22632 1.32877-.05709.25894-.11637.52036-.17579.77868l.01606.03283c.35699-.02007.46533-.02007.7756-.01462l.02511-.0291c.03942-.21521.04453-.26563.13185-.7015.04103-.20665.12659-.66073.16878-.82241.07753-.03828.15404-.07594.22705-.07594.17389 0 .15272.16168.14601.22611-.00745.10815-.07082.46139-.13579.76467l-.04337.19576c-.03022.14457-.06337.28508-.09359.4284l.01314.02863c.35188-.02007.4592-.02007.75968-.01462l.03534-.0291c.05431-.33612.07023-.42607.16659-.91547l.04848-.22486c.09418-.44007.14148-.66321.07023-.84497-.07534-.20369-.2561-.25287-.42211-.25287zm1.70818.46075c-.18703.03828-.30632.0638-.42488.0803-.11754.02007-.23216.03828-.41291.06505l-.01431.01385-.01314.01104c-.01884.14348-.03198.2675-.05695.41331-.02117.15079-.05373.32211-.10673.56829-.04103.18845-.0622.25412-.08556.32041-.02278.06629-.04789.13071-.09403.31604l.0108.01712.00906.01572c.16893-.00856.27946-.01463.39305-.01572.11345-.00436.23099 0 .41291.00109l.01592-.01385.01708-.01525c.02628-.16713.03023-.2121.04629-.29364.01591-.08745.04336-.20852.11067-.53188.03183-.15188.06731-.30329.10031-.45828.03431-.15436.07023-.30639.1044-.45827l-.00511-.01836zm.00399-.62123c-.16995-.1069-.46825-.07298-.66901.07469-.20018.14472-.22296.35013-.05359.45844.16704.10395.4665.07298.66551-.07594.19974-.14783.22471-.35137.05709-.45719zm1.02781 2.47586c.3439 0 .6963-.10099.9616-.4007.2042-.24306.2977-.60471.3302-.75363.1055-.4936.0233-.72406-.0799-.86442-.1568-.21397-.4339-.28259-.7214-.28259-.1729 0-.5847.01821-.9063.33425-.231.22797-.33773.53733-.40212.83393-.06498.3022-.13973.84621.32972 1.04866.1448.0663.3536.0845.4882.0845zm-.0268-1.1106c.0792-.37378.1728-.68749.4117-.68749.1872 0 .2008.23342.1175.60844-.0149.08325-.0832.39276-.1756.52457-.0646.09725-.1409.15623-.2253.15623-.0251 0-.1745 0-.1768-.23637-.0012-.11671.0211-.23591.0485-.36538zm2.1781 1.06253.0269-.0291c.0381-.21521.0444-.26578.1288-.70149.0422-.20666.1295-.66073.1705-.82241.0777-.03844.1529-.0761.2282-.0761.1727 0 .1517.16168.1448.22611-.0062.1083-.0696.46139-.1357.76467l-.0411.19576c-.0314.14472-.0655.28508-.0958.42856l.0132.02863c.353-.02007.4563-.02007.7585-.01463l.0365-.0291c.053-.33627.0673-.42622.1666-.91546l.0473-.22501c.0946-.44007.1425-.66307.0724-.84482-.0775-.2037-.2594-.25287-.4231-.25287-.1085 0-.3075.02785-.4843.12091-.0632.03532-.1266.07594-.1888.11671l.0542-.22361-.0291-.03782c-.377.08154-.4631.09244-.8111.14472l-.0267.0207c-.0422.35744-.0765.62602-.2264 1.32877-.0571.25893-.1164.52036-.1757.77868l.0159.03283c.3576-.02007.4643-.02007.774-.01463zm2.5939.01455c.0222-.11546.1541-.79984.1552-.79984 0 0 .1123-.50216.1192-.52037 0 0 .0353-.05228.0706-.07298h.052c.4905 0 1.0443 0 1.4784-.34032.2953-.23342.4973-.5781.5874-.99701.0233-.1027.0405-.22486.0405-.34701 0-.16044-.0302-.31916-.1175-.44318-.2213-.33006-.6621-.33612-1.171-.33861-.0016 0-.2508.00249-.2508.00249-.6514.00855-.9126.00606-1.0199-.00794-.009.05057-.0261.14052-.0261.14052s-.2334 1.15246-.2334 1.15432c0 0-.5583 2.45027-.5846 2.56573.5687-.00731.8019-.00731.9.0042zm.4324-2.04723s.248-1.15012.2469-1.14576l.008-.05898.0035-.04497.0991.01089s.5116.04684.5236.04808c.202.08326.2852.29784.2271.57795-.053.25598-.2088.47119-.409.57514-.1648.08807-.3668.09539-.5748.09539h-.1347zm1.5445.99145c-.0656.29784-.1409.84186.3262 1.03576.1489.06753.2824.08761.418.08029.1432-.00825.276-.08481.3989-.19498-.0111.04528-.0222.09057-.0333.136l.0212.0291c.3359-.01509.4402-.01509.8042-.01213l.033-.02677c.0531-.33301.1032-.65637.2413-1.29344.0674-.30516.1345-.60736.2036-.91127l-.0108-.03345c-.3758.07422-.4763.0901-.8378.14472l-.0275.0238c-.0036.03097-.0074.06069-.0109.09042-.0562-.0968-.1377-.17943-.2634-.23093-.1608-.06738-.5384.01945-.8629.33441-.2281.22486-.3376.53297-.3998.82847zm.7893.01821c.0805-.36709.1729-.67769.4123-.67769.1515 0 .2312.14892.215.40288-.0129.06333-.0267.13009-.0432.20556-.024.10909-.05.21724-.0752.32554-.0257.07407-.0557.14394-.0885.19047-.0616.09306-.2082.15079-.2926.15079-.024 0-.1717 0-.1768-.23217-.0012-.11562.0211-.23467.049-.36538zm4.1219-1.21208-.029-.03532c-.3719.0803-.4392.09306-.7809.14223l-.0251.02677c-.0012.00435-.0022.01104-.0039.01711l-.0012-.00607c-.2544.62541-.2469.49049-.454.98285-.0011-.02241-.0011-.03642-.0023-.06022l-.0518-1.06735-.0326-.03532c-.3895.0803-.3987.09306-.7585.14223l-.028.02677c-.004.01276-.004.02676-.0063.04201l.0023.00545c.045.24493.0342.19031.0793.57685.021.18969.0491.38047.0701.56783.0355.31356.0553.46792.0987.94643-.243.42731-.3005.58899-.5344.96401l.0016.00374-.1647.27758c-.0188.0293-.0359.0494-.0599.0579-.0262.0139-.0604.0164-.1079.0164h-.0912l-.1357.4808.4654.0086c.2732-.0013.4449-.1375.5373-.3204l.2926-.53442h-.0047l.0308-.03766c.1968-.45158 1.694-3.1888 1.694-3.1888zm-4.9112 6.31508h-.1974l.7306-2.5755h.2424l.0769-.2653.0075.295c-.0091.1824.1255.3441.4792.3173h.4089l.1408-.4959h-.1539c-.0885 0-.1295-.0238-.1244-.0749l-.0074-.30014h-.7574v.00156c-.2448.00545-.9761.02505-1.1241.06707-.1792.04921-.368.19391-.368.19391l.0742-.26565h-.7084l-.1476.52705-.7404 2.6149h-.1437l-.1409.4924h1.411l-.0473.1641h.6953l.0461-.1641h.1951zm-.5789-2.0522c-.1135.0335-.3246.1349-.3246.1349l.1877-.6582h.5629l-.1358.4796s-.1739.0109-.2902.0437zm.0108.9404s-.1769.0236-.2932.0517c-.1146.037-.3296.1537-.3296.1537l.1939-.685h.5658zm-.3154 1.1179h-.5646l.1636-.5781h.5629zm1.3597-1.5975h.8139l-.117.4037h-.8247l-.1238.4413h.7216l-.5464.8199c-.0382.0602-.0725.0815-.1106.0985-.0383.0207-.0885.045-.1466.045h-.2002l-.1375.4833h.5235c.2722 0 .433-.132.5517-.3052l.3746-.5465.0805.5549c.0171.104.0871.1648.1346.1885.0524.028.1066.0761.1831.0832.082.0038.1413.0067.1807.0067h.2573l.1545-.5409h-.1015c-.0582 0-.1585-.0104-.1756-.0299-.0171-.0236-.0171-.06-.0263-.1154l-.0816-.5562h-.3342l.1465-.1859h.8231l.1266-.4413h-.762l.1187-.4037h.7597l.1409-.4978h-2.2649zm-6.8738 1.7099.1899-.6735h.7807l.1427-.5009h-.7814l.1192-.4145h.7637l.1415-.4851h-1.9107l-.1386.4851h.4341l-.1158.4145h-.4352l-.14429.5095h.43389l-.2531.891c-.0342.118.016.1629.0479.2177.0325.0534.0655.0887.1397.1088.0765.0182.1289.0291.2002.0291h.8801l.1568-.5549-.3901.0571c-.0754 0-.284-.0097-.2612-.0839zm.0895-3.22408-.1978.38108c-.0424.0833-.0805.1349-.1148.1587-.0302.0201-.0901.0285-.1768.0285h-.1032l-.138.4875h.3428c.1649 0 .2915-.0644.3519-.0966.065-.037.0821-.0159.1323-.0675l.1158-.1069h1.0705l.1421-.5076h-.7837l.1369-.27718zm1.5805 3.23388c-.0183-.028-.0051-.0773.0228-.18l.2926-1.0322h1.0409c.1517-.0024.2612-.0042.3324-.0097.0765-.0085.1598-.0376.2504-.0899.0936-.0548.1415-.1125.1819-.1788.0452-.0661.1176-.2109.1798-.434l.3678-1.30622-1.0802.00669s-.3326.05229-.479.11003c-.1478.0644-.3589.2443-.3589.2443l.0975-.35806h-.6673l-.9341 3.30196c-.0332.1282-.0554.2212-.0605.2771-.0017.0602.0713.1198.1186.1648.0559.045.1386.0377.2178.045.0834.0067.202.0109.3656.0109h.5128l.1574-.5665-.459.0463c-.0491 0-.0846-.0281-.0993-.0517zm.5042-1.9094h1.0933l-.0695.2322c-.0098.0055-.0332-.0115-.1444.0025h-.9468zm.219-.7786h1.1025l-.0793.2796s-.5197-.0055-.6029.0109c-.3662.0675-.5801.276-.5801.276zm.8292 1.7883c-.009.0347-.0233.0559-.0433.0717-.0222.0153-.0581.0207-.1117.0207h-.1558l.0092-.2827h-.648l-.0263 1.3823c-.001.0997.008.1575.0765.2037.0685.0577.2795.065.5635.065h.406l.1466-.5174-.3535.0207-.1175.0073c-.0161-.0073-.0314-.014-.0485-.0322-.0149-.0157-.04-.0061-.0359-.1058l.0028-.3543.3707-.0164c.2002 0 .2857-.0694.3587-.1355.0697-.0633.0925-.1362.1187-.2347l.0622-.3137h-.5094z" fill="#fefefe"/></svg>

<svg width="26" height="17" viewBox="0 0 26 17" fill="none" xmlns="http://www.w3.org/2000/svg">
<path d="M4.70008 1.00006H10.6904C11.5266 1.00006 12.0467 1.72646 11.8516 2.6206L9.06267 15.382C8.86585 16.273 8.02864 17.0001 7.19186 17.0001H1.20215C0.367122 17.0001 -0.154129 16.273 0.040939 15.382L2.83102 2.6206C3.02609 1.72646 3.86286 1.00006 4.70008 1.00006Z" fill="#DD2423"/>
<path d="M10.1919 1.00006H17.0806C17.9167 1.00006 17.5397 1.72646 17.343 2.6206L14.5545 15.382C14.3589 16.273 14.4199 17.0001 13.5821 17.0001H6.69342C5.85562 17.0001 5.33715 16.273 5.53396 15.382L8.32229 2.6206C8.52028 1.72646 9.3553 1.00006 10.1919 1.00006Z" fill="#16315E"/>
<path d="M16.8074 1.00006H22.7977C23.6351 1.00006 24.1552 1.72646 23.9585 2.6206L21.17 15.382C20.9732 16.273 20.1354 17.0001 19.2982 17.0001H13.3107C12.4729 17.0001 11.9532 16.273 12.1495 15.382L14.9384 2.6206C15.1335 1.72646 15.9696 1.00006 16.8074 1.00006Z" fill="#036862"/>
<path d="M6.26451 5.08973C5.6485 5.09642 5.46658 5.08973 5.40846 5.0751C5.38613 5.18823 4.97044 7.23188 4.96927 7.2336C4.87977 7.64706 4.81465 7.94178 4.59344 8.1321C4.46788 8.24274 4.32128 8.29611 4.15133 8.29611C3.87815 8.29611 3.719 8.15155 3.69228 7.87736L3.68717 7.78322C3.68717 7.78322 3.77039 7.22939 3.77039 7.22628C3.77039 7.22628 4.20667 5.36392 4.28478 5.11774C4.28887 5.10374 4.29004 5.09642 4.29106 5.08973C3.44187 5.09767 3.29134 5.08973 3.28097 5.0751C3.27528 5.09518 3.25425 5.21064 3.25425 5.21064L2.80878 7.30969L2.77053 7.48771L2.6965 8.07001C2.6965 8.24274 2.72833 8.38372 2.7917 8.50292C2.99465 8.8809 3.57357 8.93754 3.90107 8.93754C4.32304 8.93754 4.71887 8.842 4.98635 8.66756C5.45066 8.37516 5.57214 7.91813 5.68048 7.51198L5.73071 7.30362C5.73071 7.30362 6.18012 5.36937 6.25648 5.11774C6.2594 5.10374 6.26057 5.09642 6.26451 5.08973ZM7.79362 6.65011C7.68528 6.65011 7.48729 6.67812 7.30945 6.77102C7.24492 6.80635 7.18389 6.84712 7.1195 6.88773L7.17761 6.66412L7.14578 6.62646C6.76864 6.70785 6.68424 6.71874 6.33587 6.77102L6.30667 6.79172C6.26622 7.14916 6.2303 7.4179 6.08035 8.12049C6.02326 8.37943 5.96398 8.64085 5.90456 8.89917L5.92062 8.932C6.27761 8.91193 6.38595 8.91193 6.69622 8.91738L6.72133 8.88828C6.76075 8.67307 6.76586 8.62265 6.85318 8.18678C6.89421 7.98013 6.97977 7.52605 7.02196 7.36437C7.09949 7.32609 7.176 7.28843 7.24901 7.28843C7.4229 7.28843 7.40173 7.45011 7.39502 7.51454C7.38757 7.62269 7.3242 7.97593 7.25923 8.27921L7.21586 8.47497C7.18564 8.61954 7.15249 8.76005 7.12227 8.90337L7.13541 8.932C7.48729 8.91193 7.59461 8.91193 7.89509 8.91738L7.93043 8.88828C7.98474 8.55216 8.00066 8.46221 8.09702 7.97281L8.1455 7.74795C8.23968 7.30788 8.28698 7.08474 8.21573 6.90298C8.14039 6.69929 7.95963 6.65011 7.79362 6.65011ZM9.5018 7.11086C9.31477 7.14914 9.19548 7.17466 9.07692 7.19116C8.95938 7.21123 8.84476 7.22944 8.66401 7.25621L8.6497 7.27006L8.63656 7.2811C8.61772 7.42458 8.60458 7.5486 8.57961 7.69441C8.55844 7.8452 8.52588 8.01652 8.47288 8.2627C8.43185 8.45115 8.41068 8.51682 8.38732 8.58311C8.36454 8.6494 8.33943 8.71382 8.29329 8.89915L8.30409 8.91627L8.31315 8.93199C8.48208 8.92343 8.59261 8.91736 8.7062 8.91627C8.81965 8.91191 8.93719 8.91627 9.11911 8.91736L9.13503 8.90351L9.15211 8.88826C9.17839 8.72113 9.18234 8.67616 9.1984 8.59462C9.21431 8.50717 9.24176 8.3861 9.30907 8.06274C9.3409 7.91086 9.37638 7.75945 9.40938 7.60446C9.44369 7.4501 9.47961 7.29807 9.51378 7.14619L9.50867 7.12783L9.5018 7.11086ZM9.50579 6.48963C9.33584 6.38273 9.03754 6.41665 8.83678 6.56432C8.6366 6.70904 8.61382 6.91445 8.78319 7.02276C8.95023 7.12671 9.24969 7.09574 9.4487 6.94682C9.64844 6.79899 9.67341 6.59545 9.50579 6.48963ZM10.5336 8.96549C10.8775 8.96549 11.2299 8.8645 11.4952 8.56479C11.6994 8.32173 11.7929 7.96008 11.8254 7.81116C11.9309 7.31756 11.8487 7.0871 11.7455 6.94674C11.5887 6.73277 11.3116 6.66415 11.0241 6.66415C10.8512 6.66415 10.4394 6.68236 10.1178 6.9984C9.8868 7.22637 9.78007 7.53573 9.71568 7.83233C9.6507 8.13453 9.57595 8.67854 10.0454 8.88099C10.1902 8.94729 10.399 8.96549 10.5336 8.96549ZM10.5068 7.85489C10.586 7.48111 10.6796 7.1674 10.9185 7.1674C11.1057 7.1674 11.1193 7.40082 11.036 7.77584C11.0211 7.85909 10.9528 8.1686 10.8604 8.30041C10.7958 8.39766 10.7195 8.45664 10.6351 8.45664C10.61 8.45664 10.4606 8.45664 10.4583 8.22027C10.4571 8.10356 10.4794 7.98436 10.5068 7.85489ZM12.6849 8.91742L12.7118 8.88832C12.7499 8.67311 12.7562 8.62254 12.8406 8.18683C12.8828 7.98017 12.9701 7.5261 13.0111 7.36442C13.0888 7.32598 13.164 7.28832 13.2393 7.28832C13.412 7.28832 13.391 7.45 13.3841 7.51443C13.3779 7.62273 13.3145 7.97582 13.2484 8.2791L13.2073 8.47486C13.1759 8.61958 13.1418 8.75994 13.1115 8.90342L13.1247 8.93205C13.4777 8.91198 13.581 8.91198 13.8832 8.91742L13.9197 8.88832C13.9727 8.55205 13.987 8.4621 14.0863 7.97286L14.1336 7.74785C14.2282 7.30778 14.2761 7.08478 14.206 6.90303C14.1285 6.69933 13.9466 6.65016 13.7829 6.65016C13.6744 6.65016 13.4754 6.67801 13.2986 6.77107C13.2354 6.80639 13.172 6.84701 13.1098 6.88778L13.164 6.66417L13.1349 6.62635C12.7579 6.70789 12.6718 6.71879 12.3238 6.77107L12.2971 6.79177C12.2549 7.14921 12.2206 7.41779 12.0707 8.12054C12.0136 8.37947 11.9543 8.6409 11.895 8.89922L11.9109 8.93205C12.2685 8.91198 12.3752 8.91198 12.6849 8.91742ZM15.2788 8.93197C15.301 8.81651 15.4329 8.13213 15.434 8.13213C15.434 8.13213 15.5463 7.62997 15.5532 7.61176C15.5532 7.61176 15.5885 7.55948 15.6238 7.53878H15.6758C16.1663 7.53878 16.7201 7.53878 17.1542 7.19846C17.4495 6.96504 17.6515 6.62036 17.7416 6.20145C17.7649 6.09875 17.7821 5.97659 17.7821 5.85444C17.7821 5.694 17.7519 5.53528 17.6646 5.41126C17.4433 5.0812 17.0025 5.07514 16.4936 5.07265C16.492 5.07265 16.2428 5.07514 16.2428 5.07514C15.5914 5.08369 15.3302 5.0812 15.2229 5.0672C15.2139 5.11777 15.1968 5.20772 15.1968 5.20772C15.1968 5.20772 14.9634 6.36018 14.9634 6.36204C14.9634 6.36204 14.4051 8.81231 14.3788 8.92777C14.9475 8.92046 15.1807 8.92046 15.2788 8.93197ZM15.7112 6.88474C15.7112 6.88474 15.9592 5.73462 15.9581 5.73898L15.9661 5.68L15.9696 5.63503L16.0687 5.64592C16.0687 5.64592 16.5803 5.69276 16.5923 5.694C16.7943 5.77726 16.8775 5.99184 16.8194 6.27195C16.7664 6.52793 16.6106 6.74314 16.4104 6.84709C16.2456 6.93516 16.0436 6.94248 15.8356 6.94248H15.7009L15.7112 6.88474ZM17.2557 7.87619C17.1901 8.17403 17.1148 8.71805 17.5819 8.91195C17.7308 8.97948 17.8643 8.99956 17.9999 8.99224C18.1431 8.98399 18.2759 8.90743 18.3988 8.79726C18.3877 8.84254 18.3766 8.88783 18.3655 8.93326L18.3867 8.96236C18.7226 8.94727 18.8269 8.94727 19.1909 8.95023L19.2239 8.92346C19.277 8.59045 19.3271 8.26709 19.4652 7.63002C19.5326 7.32486 19.5997 7.02266 19.6688 6.71875L19.658 6.6853C19.2822 6.75952 19.1817 6.7754 18.8202 6.83002L18.7927 6.85382C18.7891 6.88479 18.7853 6.91451 18.7818 6.94424C18.7256 6.84744 18.6441 6.76481 18.5184 6.71331C18.3576 6.64593 17.98 6.73276 17.6555 7.04772C17.4274 7.27258 17.3179 7.58069 17.2557 7.87619ZM18.045 7.8944C18.1255 7.52731 18.2179 7.21671 18.4573 7.21671C18.6088 7.21671 18.6885 7.36563 18.6723 7.61959C18.6594 7.68292 18.6456 7.74968 18.6291 7.82515C18.6051 7.93424 18.5791 8.04239 18.5539 8.15069C18.5282 8.22476 18.4982 8.29463 18.4654 8.34116C18.4038 8.43422 18.2572 8.49195 18.1728 8.49195C18.1488 8.49195 18.0011 8.49195 17.996 8.25978C17.9948 8.14416 18.0171 8.02511 18.045 7.8944ZM22.1669 6.68232L22.1379 6.647C21.766 6.7273 21.6987 6.74006 21.357 6.78923L21.3319 6.816C21.3307 6.82035 21.3297 6.82704 21.328 6.83311L21.3268 6.82704C21.0724 7.45245 21.0799 7.31753 20.8728 7.80989C20.8717 7.78748 20.8717 7.77347 20.8705 7.74967L20.8187 6.68232L20.7861 6.647C20.3966 6.7273 20.3874 6.74006 20.0276 6.78923L19.9996 6.816C19.9956 6.82876 19.9956 6.84276 19.9933 6.85801L19.9956 6.86346C20.0406 7.10839 20.0298 7.05377 20.0749 7.44031C20.0959 7.63 20.124 7.82078 20.145 8.00814C20.1805 8.3217 20.2003 8.47606 20.2437 8.95457C20.0007 9.38188 19.9432 9.54356 19.7093 9.91858L19.7109 9.92232L19.5462 10.1999C19.5274 10.2292 19.5103 10.2493 19.4863 10.2578C19.4601 10.2717 19.4259 10.2742 19.3784 10.2742H19.2872L19.1515 10.755L19.6169 10.7636C19.8901 10.7623 20.0618 10.6261 20.1542 10.4432L20.4468 9.90878H20.4421L20.4729 9.87112C20.6697 9.41954 22.1669 6.68232 22.1669 6.68232ZM17.2557 12.9974H17.0583L17.7889 10.4219H18.0313L18.1082 10.1566L18.1157 10.4516C18.1066 10.634 18.2412 10.7957 18.5949 10.7689H19.0038L19.1446 10.273H18.9907C18.9022 10.273 18.8612 10.2492 18.8663 10.1981L18.8589 9.89796H18.1015V9.89952C17.8567 9.90497 17.1254 9.92457 16.9774 9.96659C16.7982 10.0158 16.6094 10.1605 16.6094 10.1605L16.6836 9.89485H15.9752L15.8276 10.4219L15.0872 13.0368H14.9435L14.8026 13.5292H16.2136L16.1663 13.6933H16.8616L16.9077 13.5292H17.1028L17.2557 12.9974ZM16.6768 10.9452C16.5633 10.9787 16.3522 11.0801 16.3522 11.0801L16.5399 10.4219H17.1028L16.967 10.9015C16.967 10.9015 16.7931 10.9124 16.6768 10.9452ZM16.6876 11.8856C16.6876 11.8856 16.5107 11.9092 16.3944 11.9373C16.2798 11.9743 16.0648 12.091 16.0648 12.091L16.2587 11.406H16.8245L16.6876 11.8856ZM16.3722 13.0035H15.8076L15.9712 12.4254H16.5341L16.3722 13.0035ZM17.7319 11.406H18.5458L18.4288 11.8097H17.6041L17.4803 12.251H18.2019L17.6555 13.0709C17.6173 13.1311 17.583 13.1524 17.5449 13.1694C17.5066 13.1901 17.4564 13.2144 17.3983 13.2144H17.1981L17.0606 13.6977H17.5841C17.8563 13.6977 18.0171 13.5657 18.1358 13.3925L18.5104 12.846L18.5909 13.4009C18.608 13.5049 18.678 13.5657 18.7255 13.5894C18.7779 13.6174 18.8321 13.6655 18.9086 13.6726C18.9906 13.6764 19.0499 13.6793 19.0893 13.6793H19.3466L19.5011 13.1384H19.3996C19.3414 13.1384 19.2411 13.128 19.224 13.1085C19.2069 13.0849 19.2069 13.0485 19.1977 12.9931L19.1161 12.4369H18.7819L18.9284 12.251H19.7515L19.8781 11.8097H19.1161L19.2348 11.406H19.9945L20.1354 10.9082H17.8705L17.7319 11.406ZM10.8581 13.1159L11.048 12.4424H11.8287L11.9714 11.9415H11.19L11.3092 11.527H12.0729L12.2144 11.0419H10.3037L10.1651 11.527H10.5992L10.4834 11.9415H10.0482L9.90391 12.451H10.3378L10.0847 13.342C10.0505 13.46 10.1007 13.5049 10.1326 13.5597C10.1651 13.6131 10.1981 13.6484 10.2723 13.6685C10.3488 13.6867 10.4012 13.6976 10.4725 13.6976H11.3526L11.5094 13.1427L11.1193 13.1998C11.0439 13.1998 10.8353 13.1901 10.8581 13.1159ZM10.9476 9.89182L10.7498 10.2729C10.7074 10.3562 10.6693 10.4078 10.635 10.4316C10.6048 10.4517 10.5449 10.4601 10.4582 10.4601H10.355L10.217 10.9476H10.5598C10.7247 10.9476 10.8513 10.8832 10.9117 10.851C10.9767 10.814 10.9938 10.8351 11.044 10.7835L11.1598 10.6766H12.2303L12.3724 10.169H11.5887L11.7256 9.89182H10.9476ZM12.5281 13.1257C12.5098 13.0977 12.523 13.0484 12.5509 12.9457L12.8435 11.9135H13.8844C14.0361 11.9111 14.1456 11.9093 14.2168 11.9038C14.2933 11.8953 14.3766 11.8662 14.4672 11.8139C14.5608 11.7591 14.6087 11.7014 14.6491 11.6351C14.6943 11.569 14.7667 11.4242 14.8289 11.2011L15.1967 9.89488L14.1165 9.90157C14.1165 9.90157 13.7839 9.95386 13.6375 10.0116C13.4897 10.076 13.2786 10.2559 13.2786 10.2559L13.3761 9.89784H12.7088L11.7747 13.1998C11.7415 13.328 11.7193 13.421 11.7142 13.4769C11.7125 13.5371 11.7855 13.5967 11.8328 13.6417C11.8887 13.6867 11.9714 13.6794 12.0506 13.6867C12.134 13.6934 12.2526 13.6976 12.4162 13.6976H12.929L13.0864 13.1311L12.6274 13.1774C12.5783 13.1774 12.5428 13.1493 12.5281 13.1257ZM13.0323 11.2163H14.1256L14.0561 11.4485C14.0463 11.454 14.0229 11.437 13.9117 11.451H12.9649L13.0323 11.2163ZM13.2513 10.4377H14.3538L14.2745 10.7173C14.2745 10.7173 13.7548 10.7118 13.6716 10.7282C13.3054 10.7957 13.0915 11.0042 13.0915 11.0042L13.2513 10.4377ZM14.0805 12.226C14.0715 12.2607 14.0572 12.2819 14.0372 12.2977C14.015 12.313 13.9791 12.3184 13.9255 12.3184H13.7697L13.7789 12.0357H13.1309L13.1046 13.418C13.1036 13.5177 13.1126 13.5755 13.1811 13.6217C13.2496 13.6794 13.4606 13.6867 13.7446 13.6867H14.1506L14.2972 13.1693L13.9437 13.19L13.8262 13.1973C13.8101 13.19 13.7948 13.1833 13.7777 13.1651C13.7628 13.1494 13.7377 13.159 13.7418 13.0593L13.7446 12.705L14.1153 12.6886C14.3155 12.6886 14.401 12.6192 14.474 12.5531C14.5437 12.4898 14.5665 12.4169 14.5927 12.3184L14.6549 12.0047H14.1455L14.0805 12.226Z" fill="#FEFEFE"/>
</svg>
